img/logo-01.svg

<svg width="194" height="25" viewBox="0 0 194 25" fill="none" xmlns="http://www.w3.org/2000/svg">
<path d="M106.79 0.476685H96.243V0.73086L96.9101 0.921539C96.9259 0.921539 96.9419 0.921537 96.9575 0.926754C96.9734 0.926754 96.9896 0.937189 97.0054 0.953198C97.413 1.07498 97.7677 1.27087 98.0804 1.54106C98.3874 1.81646 98.6308 2.13935 98.8057 2.51531C98.9805 2.88587 99.0651 3.28845 99.0704 3.71729V23.7315H106.79C106.833 23.7367 107.044 23.7367 107.426 23.7315C107.807 23.7261 108.305 23.6892 108.924 23.6257C109.538 23.5622 110.226 23.4403 110.989 23.2602C111.746 23.0801 112.53 22.8207 113.329 22.482C114.134 22.1377 114.912 21.6877 115.659 21.1316C116.411 20.5706 117.088 19.8822 117.687 19.0561C118.285 18.2301 118.762 17.24 119.116 16.0963C119.466 14.9528 119.651 13.6186 119.657 12.1044C119.651 10.5581 119.471 9.20806 119.116 8.04853C118.767 6.88918 118.296 5.8937 117.698 5.06228C117.099 4.23625 116.427 3.54262 115.68 2.98678C114.928 2.43616 114.155 1.99131 113.356 1.65762C112.551 1.32394 111.773 1.06994 111.015 0.900491C110.258 0.736617 109.57 0.619872 108.951 0.566806C108.331 0.508704 107.828 0.476865 107.442 0.476865C107.06 0.476865 106.843 0.476865 106.79 0.476865L106.79 0.476685ZM106.79 21.8251H103.2V2.38291H106.79C106.801 2.37752 106.944 2.38813 107.235 2.40954C107.521 2.43616 107.902 2.49966 108.379 2.61082C108.85 2.7166 109.374 2.89666 109.94 3.14544C110.507 3.39961 111.079 3.74913 111.645 4.19398C112.212 4.64387 112.736 5.22112 113.207 5.92536C113.684 6.62942 114.065 7.48711 114.351 8.50381C114.642 9.52034 114.79 10.7225 114.796 12.1044C114.79 13.5021 114.642 14.7091 114.351 15.7312C114.065 16.7585 113.684 17.6214 113.207 18.3256C112.736 19.0299 112.212 19.6071 111.645 20.0516C111.079 20.4965 110.507 20.846 109.94 21.0896C109.374 21.3385 108.85 21.5132 108.379 21.6139C107.902 21.7197 107.521 21.7832 107.235 21.8046C106.944 21.8255 106.801 21.831 106.79 21.8255V21.8251Z" fill="#0B1759"/>
<path d="M134.207 0C132.963 0 131.783 0.159017 130.66 0.476692C129.543 0.789149 128.516 1.27088 127.584 1.90641C126.652 2.54715 125.842 3.34655 125.159 4.31019C124.47 5.27365 123.941 6.40152 123.565 7.69344C123.189 8.98537 122.999 10.4467 122.993 12.0722C122.999 13.7561 123.189 15.2491 123.565 16.5622C123.941 17.8752 124.47 19.0137 125.159 19.9719C125.842 20.9304 126.652 21.7191 127.584 22.3387C128.516 22.9636 129.543 23.4243 130.66 23.7259C131.783 24.0278 132.963 24.176 134.207 24.176C135.452 24.176 136.632 24.0278 137.755 23.7259C138.872 23.4243 139.9 22.9636 140.831 22.3387C141.763 21.7193 142.573 20.9305 143.262 19.9719C143.945 19.0137 144.474 17.8752 144.85 16.5622C145.226 15.2491 145.417 13.7561 145.422 12.0722C145.417 10.4307 145.226 8.96432 144.85 7.667C144.474 6.36986 143.945 5.24199 143.262 4.28375C142.573 3.32011 141.763 2.52053 140.831 1.8904C139.9 1.25505 138.872 0.783934 137.755 0.466259C136.632 0.153801 135.452 0.000180059 134.207 0.000180059V0ZM134.207 22.6193C133.186 22.6247 132.259 22.434 131.428 22.0528C130.596 21.6717 129.882 21.0626 129.283 20.2313C128.685 19.3947 128.225 18.3093 127.901 16.9645C127.578 15.6195 127.414 13.9886 127.409 12.072C127.42 9.59949 127.705 7.59271 128.267 6.05183C128.833 4.50591 129.622 3.37282 130.639 2.65275C131.655 1.93285 132.841 1.57776 134.207 1.58855C135.235 1.58333 136.167 1.77923 137.003 2.17641C137.84 2.57342 138.56 3.18754 139.158 4.0294C139.762 4.87143 140.222 5.95685 140.545 7.28547C140.874 8.61463 141.038 10.2084 141.038 12.072C141.038 13.9886 140.874 15.6195 140.545 16.9645C140.222 18.3093 139.762 19.3947 139.158 20.2313C138.56 21.0626 137.84 21.6717 137.003 22.0528C136.167 22.4342 135.235 22.6247 134.207 22.6193Z" fill="#0B1759"/>
<path d="M159.496 0C158.252 0 157.071 0.159017 155.949 0.476692C154.831 0.789149 153.804 1.27088 152.872 1.90641C151.94 2.54715 151.13 3.34655 150.447 4.31019C149.759 5.27365 149.23 6.40152 148.854 7.69344C148.477 8.98537 148.287 10.4467 148.282 12.0722C148.287 13.7561 148.478 15.2491 148.854 16.5622C149.23 17.8752 149.759 19.0137 150.447 19.9719C151.13 20.9304 151.94 21.7191 152.872 22.3387C153.804 22.9636 154.831 23.4243 155.949 23.7259C157.071 24.0278 158.252 24.176 159.496 24.176C160.74 24.176 161.921 24.0278 163.044 23.7259C164.161 23.4243 165.188 22.9636 166.12 22.3387C167.052 21.7193 167.862 20.9305 168.55 19.9719C169.233 19.0137 169.763 17.8752 170.139 16.5622C170.515 15.2491 170.705 13.7561 170.71 12.0722C170.705 10.4307 170.514 8.96432 170.139 7.667C169.763 6.36986 169.233 5.24199 168.55 4.28375C167.862 3.32011 167.052 2.52053 166.12 1.8904C165.188 1.25505 164.161 0.783934 163.044 0.466259C161.921 0.153801 160.74 0.000180059 159.496 0.000180059V0ZM159.496 22.6193C158.474 22.6247 157.548 22.434 156.716 22.0528C155.885 21.6717 155.17 21.0626 154.572 20.2313C153.974 19.3947 153.513 18.3093 153.19 16.9645C152.867 15.6195 152.703 13.9886 152.698 12.072C152.708 9.59949 152.994 7.59271 153.555 6.05183C154.122 4.50591 154.911 3.37282 155.927 2.65275C156.944 1.93285 158.13 1.57776 159.496 1.58855C160.523 1.58333 161.455 1.77923 162.292 2.17641C163.128 2.57342 163.848 3.18754 164.447 4.0294C165.05 4.87143 165.511 5.95685 165.834 7.28547C166.162 8.61463 166.326 10.2084 166.326 12.072C166.326 13.9886 166.162 15.6195 165.834 16.9645C165.511 18.3093 165.05 19.3947 164.447 20.2313C163.848 21.0626 163.128 21.6717 162.292 22.0528C161.455 22.4342 160.523 22.6247 159.496 22.6193Z" fill="#0B1759"/>
<path d="M186.918 14.01L183.169 13.3429C183.693 13.327 184.185 13.2848 184.641 13.2105C185.091 13.1416 185.467 13.0676 185.758 12.9987C186.049 12.9248 186.213 12.8822 186.25 12.8664C186.875 12.6913 187.458 12.4586 188.008 12.1515C188.554 11.8498 189.035 11.4633 189.454 10.9972C189.867 10.5315 190.195 9.97005 190.433 9.30825C190.666 8.65186 190.788 7.87332 190.793 6.98902C190.788 5.91421 190.608 5.00364 190.253 4.25712C189.904 3.51042 189.427 2.8963 188.823 2.41979C188.225 1.9431 187.553 1.56714 186.801 1.30271C186.049 1.03271 185.265 0.842032 184.461 0.725468C183.651 0.609083 182.862 0.53479 182.094 0.508347C181.326 0.481904 180.627 0.471293 179.992 0.476509H173.13V0.762522L173.797 0.921361C173.813 0.921361 173.829 0.92136 173.844 0.926576C173.86 0.926576 173.876 0.937011 173.892 0.953021C174.3 1.0748 174.655 1.27069 174.967 1.54088C175.274 1.81628 175.518 2.13917 175.692 2.50973C175.867 2.88569 175.952 3.28809 175.957 3.71693V23.7311H180.087V13.4699H181.866L189.236 23.7311H193.938L186.917 14.01H186.918ZM182.247 11.8178H180.087V2.0969L182.247 2.06488C182.253 2.05967 182.364 2.06488 182.576 2.08611C182.787 2.10194 183.063 2.15482 183.402 2.23973C183.735 2.32427 184.096 2.46728 184.471 2.66857C184.847 2.86986 185.207 3.15048 185.541 3.51042C185.88 3.87055 186.155 4.33645 186.367 4.9029C186.578 5.46936 186.69 6.16839 186.695 6.98902C186.69 7.80965 186.61 8.50327 186.452 9.06469C186.298 9.63114 186.081 10.0868 185.816 10.4413C185.546 10.7909 185.25 11.0607 184.916 11.2461L184.853 11.278C184.54 11.4528 184.223 11.5798 183.905 11.6593C183.582 11.7334 183.275 11.7809 182.989 11.7971C182.698 11.8128 182.454 11.8236 182.248 11.818L182.247 11.8178Z" fill="#0B1759"/>
<path d="M2.09654 23.7313L4.03461 19.5379H15.1217L17.1233 23.7313H21.6979L10.706 0.476685L0 23.7313H2.09654ZM9.49876 7.62472L14.3911 17.9495H4.7653L9.49876 7.62472Z" fill="#46CBE3"/>
<path d="M67.9876 0.476685V16.2338C67.9824 17.1287 67.85 17.9123 67.5904 18.5741C67.3364 19.2358 66.9923 19.7974 66.5631 20.2578C66.1342 20.7185 65.6579 21.0946 65.1388 21.391C64.6146 21.6823 64.0906 21.9098 63.561 22.0687C63.0262 22.2329 62.5285 22.3442 62.0678 22.4023C61.6071 22.4658 61.2153 22.4979 60.9031 22.4925C60.8926 22.4979 60.7548 22.4925 60.49 22.4766C60.22 22.4556 59.8761 22.3971 59.4523 22.2966C59.0287 22.1958 58.584 22.0212 58.1075 21.7722C57.6308 21.5234 57.1859 21.1687 56.7625 20.708C56.3389 20.2527 55.9949 19.6544 55.7247 18.9238C55.4601 18.1931 55.3223 17.2981 55.3117 16.234V0.476865H48.3546V0.76288L49.0216 0.921719C49.0374 0.921719 49.0534 0.921717 49.0691 0.926934C49.0851 0.926934 49.1011 0.937367 49.1169 0.953376C49.5351 1.07516 49.8953 1.27105 50.2023 1.54124C50.5094 1.81664 50.7529 2.13953 50.9224 2.51009C51.0917 2.88605 51.1818 3.28845 51.1818 3.71729V16.234C51.187 17.2825 51.3248 18.2039 51.5842 18.9925C51.8488 19.7814 52.2035 20.4646 52.6536 21.0311C53.0983 21.5975 53.6012 22.0741 54.1572 22.4554C54.7133 22.8366 55.2905 23.1436 55.8834 23.3768C56.4765 23.6097 57.0537 23.7844 57.6096 23.9062C58.1656 24.0227 58.6685 24.1022 59.1186 24.1445C59.5633 24.187 59.918 24.208 60.1828 24.208C60.4422 24.2132 60.58 24.2132 60.585 24.208C61.8451 24.203 62.9411 24.0808 63.8837 23.8429C64.8209 23.6045 65.6255 23.2816 66.2927 22.8794C66.9597 22.4716 67.5159 22.0215 67.9552 21.5186C68.3999 21.0208 68.7496 20.5019 69.009 19.9725C69.2734 19.4429 69.4641 18.9293 69.5912 18.4422C69.7184 17.9499 69.8032 17.5104 69.8402 17.1238C69.8827 16.7427 69.8983 16.4462 69.8931 16.2343V0.477225H67.987L67.9876 0.476685Z" fill="#46CBE3"/>
<path d="M73.9717 23.7313L75.9098 19.5379H86.9969L88.9985 23.7313H93.5731L82.5811 0.476685L71.8752 23.7313H73.9717ZM81.3739 7.62472L86.2662 17.9495H76.6405L81.3739 7.62472Z" fill="#46CBE3"/>
<path d="M34.1597 0C32.9155 0 31.7347 0.159017 30.6123 0.476692C29.4952 0.789149 28.4679 1.27088 27.5359 1.90641C26.6041 2.54715 25.7941 3.34655 25.1111 4.31019C24.4226 5.27365 23.8932 6.40152 23.5173 7.69344C23.1411 8.98537 22.9507 10.4467 22.9454 12.0722C22.9507 13.7561 23.1413 15.2491 23.5173 16.5622C23.8932 17.8752 24.4226 19.0137 25.1111 19.9719C25.7941 20.9304 26.6041 21.7191 27.5359 22.3387C28.4679 22.9636 29.495 23.4243 30.6123 23.7259C31.7349 24.0278 32.9155 24.176 34.1597 24.176C35.404 24.176 36.5848 24.0278 37.7072 23.7259C38.8243 23.4243 39.8516 22.9636 40.7836 22.3387C40.828 22.3092 40.8723 22.2793 40.916 22.2489C41.1509 22.5752 41.4107 22.8677 41.6956 23.1271C42.0669 23.4647 42.4848 23.7292 42.949 23.9206C43.4135 24.1112 43.9305 24.1807 44.4998 24.1281C45.6993 24.0173 47.3139 23.1138 48.0682 21.3096C47.4648 21.6846 46.9099 21.8953 46.4037 21.9422C46.0243 21.9771 45.6403 21.9064 45.2514 21.7294C44.8628 21.5526 44.4906 21.3212 44.1346 21.035C43.7787 20.7489 43.4561 20.4278 43.1683 20.0718L43.1545 20.0547L43.2142 19.9721C43.8972 19.0139 44.4266 17.8754 44.8027 16.5624C45.1787 15.2493 45.3692 13.7562 45.3744 12.0723C45.3692 10.4309 45.1785 8.9645 44.8027 7.66718C44.4266 6.37004 43.8972 5.24217 43.2142 4.28393C42.5258 3.32029 41.7158 2.52071 40.784 1.89058C39.852 1.25523 38.8248 0.784114 37.7076 0.466439C36.5849 0.153981 35.4044 0.000360119 34.1601 0.000360119L34.1597 0ZM34.1597 22.6193C33.1378 22.6247 32.2112 22.434 31.38 22.0528C30.5486 21.6717 29.8339 21.0626 29.2356 20.2313C28.6373 19.3947 28.1766 18.3093 27.8536 16.9645C27.5307 15.6195 27.3664 13.9886 27.3612 12.072C27.3718 9.59949 27.6577 7.59271 28.2189 6.05183C28.7854 4.50591 29.5743 3.37282 30.591 2.65275C31.6076 1.93285 32.7937 1.57776 34.1597 1.58855C35.1871 1.58333 36.1189 1.77923 36.9555 2.17641C37.7919 2.57342 38.512 3.18754 39.1103 4.0294C39.714 4.87143 40.1743 5.95685 40.4976 7.28547C40.8259 8.61463 40.9899 10.2084 40.9899 12.072C40.9899 13.9886 40.8259 15.6195 40.4976 16.9645C40.1745 18.3093 39.714 19.3947 39.1103 20.2313C38.512 21.0626 37.7919 21.6717 36.9555 22.0528C36.1189 22.4342 35.1869 22.6247 34.1597 22.6193Z" fill="#46CBE3"/>
</svg>

<svg width="194" height="25" fill="none" xmlns="http://www.w3.org/2000/svg"><path d="M106.79.477H96.243V.73l.667.19c.016 0 .032 0 .047.006.016 0 .033.01.048.026a2.88 2.88 0 011.075.588c.307.275.55.598.726.974.175.37.26.773.264 1.202V23.73h7.72c.043.006.254.006.636 0a17.98 17.98 0 001.498-.105 16.458 16.458 0 002.065-.366c.757-.18 1.541-.44 2.34-.778a11.423 11.423 0 002.33-1.35 9.575 9.575 0 002.028-2.076c.598-.826 1.075-1.816 1.429-2.96.35-1.143.535-2.477.541-3.992-.006-1.546-.186-2.896-.541-4.055-.349-1.16-.82-2.155-1.418-2.987a9.536 9.536 0 00-2.018-2.075 11.325 11.325 0 00-2.324-1.33A14.245 14.245 0 00111.015.9a16.645 16.645 0 00-2.064-.333c-.62-.058-1.123-.09-1.509-.09h-.652zm0 21.348h-3.59V2.383h3.59a5.15 5.15 0 01.445.027c.286.026.667.09 1.144.2a8.67 8.67 0 011.561.535 8.215 8.215 0 011.705 1.049 7.534 7.534 0 011.562 1.731c.477.704.858 1.562 1.144 2.579.291 1.016.439 2.219.445 3.6-.006 1.398-.154 2.605-.445 3.627-.286 1.028-.667 1.89-1.144 2.595-.471.704-.995 1.281-1.562 1.726a7.722 7.722 0 01-1.705 1.038 8.188 8.188 0 01-1.561.524 8.51 8.51 0 01-1.144.19c-.291.022-.434.027-.445.022zM134.207 0c-1.244 0-2.424.159-3.547.477a10.408 10.408 0 00-3.076 1.43 9.68 9.68 0 00-2.425 2.403c-.689.964-1.218 2.092-1.594 3.383-.376 1.292-.566 2.754-.572 4.38.006 1.683.196 3.176.572 4.49.376 1.312.905 2.45 1.594 3.409a9.267 9.267 0 002.425 2.367 10.305 10.305 0 003.076 1.387 13.59 13.59 0 003.547.45c1.245 0 2.425-.148 3.548-.45a10.294 10.294 0 003.076-1.387 9.377 9.377 0 002.431-2.367c.683-.958 1.212-2.097 1.588-3.41.376-1.313.567-2.806.572-4.49-.005-1.641-.196-3.108-.572-4.405-.376-1.297-.905-2.425-1.588-3.383a9.58 9.58 0 00-2.431-2.394 10.52 10.52 0 00-3.076-1.424A13.164 13.164 0 00134.207 0zm0 22.62c-1.021.005-1.948-.186-2.779-.567-.832-.381-1.546-.99-2.145-1.822-.598-.836-1.058-1.922-1.382-3.267-.323-1.344-.487-2.975-.492-4.892.011-2.473.296-4.48.858-6.02.566-1.546 1.355-2.68 2.372-3.4 1.016-.72 2.202-1.074 3.568-1.063 1.028-.006 1.96.19 2.796.587.837.397 1.557 1.012 2.155 1.853.604.842 1.064 1.928 1.387 3.256.329 1.33.493 2.923.493 4.787 0 1.917-.164 3.548-.493 4.893-.323 1.344-.783 2.43-1.387 3.266-.598.832-1.318 1.44-2.155 1.822-.836.381-1.768.572-2.796.566zM159.496 0c-1.244 0-2.425.159-3.547.477a10.402 10.402 0 00-3.077 1.43 9.68 9.68 0 00-2.425 2.403c-.688.964-1.217 2.092-1.593 3.383-.377 1.292-.567 2.754-.572 4.38.005 1.683.196 3.176.572 4.49.376 1.312.905 2.45 1.593 3.409a9.267 9.267 0 002.425 2.367 10.3 10.3 0 003.077 1.387c1.122.302 2.303.45 3.547.45 1.244 0 2.425-.148 3.548-.45a10.305 10.305 0 003.076-1.387 9.358 9.358 0 002.43-2.367c.683-.958 1.213-2.097 1.589-3.41.376-1.313.566-2.806.571-4.49-.005-1.641-.196-3.108-.571-4.405-.376-1.297-.906-2.425-1.589-3.383a9.56 9.56 0 00-2.43-2.394 10.532 10.532 0 00-3.076-1.424A13.169 13.169 0 00159.496 0zm0 22.62c-1.022.005-1.948-.186-2.78-.567-.831-.381-1.546-.99-2.144-1.822-.598-.836-1.059-1.922-1.382-3.267-.323-1.344-.487-2.975-.492-4.892.01-2.473.296-4.48.857-6.02.567-1.546 1.356-2.68 2.372-3.4 1.017-.72 2.203-1.074 3.569-1.063 1.027-.006 1.959.19 2.796.587.836.397 1.556 1.012 2.155 1.853.603.842 1.064 1.928 1.387 3.256.328 1.33.492 2.923.492 4.787 0 1.917-.164 3.548-.492 4.893-.323 1.344-.784 2.43-1.387 3.266-.599.832-1.319 1.44-2.155 1.822-.837.381-1.769.572-2.796.566zm27.422-8.61l-3.749-.667a11.332 11.332 0 001.472-.133c.45-.068.826-.142 1.117-.211a7.18 7.18 0 00.492-.133 8.003 8.003 0 001.758-.714 5.533 5.533 0 001.446-1.155 5.128 5.128 0 00.979-1.689c.233-.656.355-1.435.36-2.319-.005-1.075-.185-1.985-.54-2.732a4.988 4.988 0 00-1.43-1.837 6.883 6.883 0 00-2.022-1.117 12.058 12.058 0 00-2.34-.578 22.22 22.22 0 00-2.367-.217 49.592 49.592 0 00-2.102-.031h-6.862v.286l.667.158c.016 0 .032 0 .047.006.016 0 .032.01.048.026.408.122.763.318 1.075.588.307.275.551.598.725.969.175.376.26.778.265 1.207V23.73h4.13V13.47h1.779l7.37 10.261h4.702l-7.021-9.721h.001zm-4.671-2.192h-2.16V2.097l2.16-.032a2.2 2.2 0 01.329.021c.211.016.487.069.826.154.333.084.694.227 1.069.429.376.2.736.481 1.07.841.339.36.614.826.826 1.393.211.566.323 1.265.328 2.086-.005.82-.085 1.514-.243 2.076-.154.566-.371 1.022-.636 1.376-.27.35-.566.62-.9.805l-.063.032a3.87 3.87 0 01-.948.381 5.52 5.52 0 01-.916.138 9.625 9.625 0 01-.741.021h-.001z" fill="#0B1759"/><path d="M2.097 23.731l1.938-4.193h11.087l2.001 4.193h4.575L10.706.477 0 23.73h2.097zM9.499 7.625L14.39 17.95H4.765L9.5 7.625zM67.988.477v15.757c-.006.895-.138 1.678-.398 2.34a5.14 5.14 0 01-1.027 1.684 6.02 6.02 0 01-1.424 1.133 7.96 7.96 0 01-1.578.678 8.926 8.926 0 01-1.493.333 7.73 7.73 0 01-1.165.09c-.01.006-.148 0-.413-.015a7.016 7.016 0 01-1.038-.18 5.849 5.849 0 01-1.344-.525c-.477-.249-.922-.603-1.345-1.064-.424-.455-.768-1.054-1.038-1.784-.265-.73-.403-1.626-.413-2.69V.477h-6.957v.286l.667.159c.015 0 .031 0 .047.005.016 0 .032.01.048.026.418.122.778.318 1.085.588a2.89 2.89 0 01.98 2.176v12.517c.005 1.048.143 1.97.402 2.758.265.79.62 1.473 1.07 2.04a6.817 6.817 0 001.503 1.423 8.656 8.656 0 001.726.922c.593.233 1.17.407 1.727.53a13.67 13.67 0 002.573.301c.26.005.397.005.402 0 1.26-.005 2.356-.127 3.299-.365.937-.238 1.742-.561 2.409-.964.667-.407 1.223-.858 1.662-1.36a6.853 6.853 0 001.054-1.546c.264-.53.455-1.044.582-1.53a8.857 8.857 0 00.302-2.209V.477h-1.906zm5.984 23.254l1.938-4.193h11.087l2.002 4.193h4.574L82.581.477 71.875 23.73h2.097zm7.402-16.106l4.892 10.325H76.64l4.734-10.325zM34.16 0c-1.244 0-2.425.159-3.548.477a10.41 10.41 0 00-3.076 1.43A9.682 9.682 0 0025.11 4.31c-.688.964-1.218 2.092-1.594 3.383-.376 1.292-.566 2.754-.572 4.38.006 1.683.196 3.176.572 4.49.376 1.312.906 2.45 1.594 3.409a9.27 9.27 0 002.425 2.367 10.312 10.312 0 003.076 1.387c1.123.302 2.304.45 3.548.45 1.244 0 2.425-.148 3.547-.45a10.306 10.306 0 003.209-1.477c.235.326.495.619.78.878.37.338.789.602 1.253.794.465.19.982.26 1.55.207 1.2-.11 2.815-1.014 3.57-2.818-.604.375-1.16.585-1.665.632a2.252 2.252 0 01-1.153-.213 5.254 5.254 0 01-1.116-.694 6.377 6.377 0 01-.967-.963l-.014-.017.06-.083c.683-.958 1.213-2.097 1.589-3.41.376-1.313.566-2.806.571-4.49-.005-1.641-.196-3.107-.571-4.405-.376-1.297-.906-2.425-1.589-3.383a9.57 9.57 0 00-2.43-2.393A10.532 10.532 0 0037.708.466 13.162 13.162 0 0034.16 0zm0 22.62c-1.022.005-1.949-.186-2.78-.567-.831-.381-1.546-.99-2.144-1.822-.599-.836-1.06-1.922-1.382-3.267-.323-1.344-.488-2.975-.493-4.892.01-2.473.297-4.48.858-6.02.566-1.546 1.355-2.68 2.372-3.4 1.017-.72 2.203-1.074 3.569-1.063 1.027-.006 1.959.19 2.796.587.836.397 1.556 1.012 2.154 1.853.604.842 1.064 1.928 1.388 3.256.328 1.33.492 2.923.492 4.787 0 1.917-.164 3.548-.492 4.893-.323 1.344-.784 2.43-1.388 3.266-.598.832-1.318 1.44-2.154 1.822-.837.381-1.77.572-2.796.566z" fill="#46CBE3"/></svg>
